ui/StatusQ/src/assets/img/icons/teller.svg

<svg fill="none" height="25" viewBox="0 0 24 25" width="24" xmlns="http://www.w3.org/2000/svg"><path d="m8.48535 3.98458c1.94105-1.97944 5.08825-1.97944 7.02925 0l5.0296 5.12896c1.9411 1.97946 1.9411 5.18876 0 7.16816l-5.0296 4.7337c-1.941 1.9795-5.0882 1.9795-7.02925 0l-5.02954-4.7337c-1.94108-1.9794-1.94108-5.1887 0-7.16816zm.14388 5.39969c-.32457-.0001-.60142.11533-.83093.34618-.22922.23076-.34375.50975-.34375.83635 0 .3263.11453.6052.34375.836.22951.2309.50636.3462.83093.3462h6.58347c.3247 0 .6014-.1153.831-.3462.2293-.2308.3439-.5097.3437-.836.0001-.3266-.1146-.60559-.3437-.83635l-2.7552-2.7736c-.2295-.23075-.5063-.34618-.8308-.34618-.3244 0-.6012.11543-.8307.34618-.2293.2309-.3439.50973-.3439.83631s.1146.60532.3439.83622l.7499.75489zm2.08447 8.65873c.2298.2309.5067.3463.8314.3463s.6017-.1154.8311-.3463c.2297-.2308.3444-.5094.3444-.836s-.1147-.6053-.3444-.8362l-.7502-.7548h3.744c.3246 0 .6018-.1153.8313-.3464.2295-.2308.3442-.5097.3442-.8363 0-.3264-.1147-.6051-.3442-.836-.2296-.2309-.5068-.3465-.8313-.3463h-6.58194c-.32468-.0002-.60191.1154-.83127.3463-.22951.2309-.34428.5096-.34414.836-.00014.3266.11463.6055.34414.8363z" fill="#000"/></svg>

<svg width="24" height="25" viewBox="0 0 24 25" fill="none" xmlns="http://www.w3.org/2000/svg">
<path d="M8.48535 3.98458C10.4264 2.00514 13.5736 2.00514 15.5146 3.98458L20.5442 9.11354C22.4853 11.093 22.4853 14.3023 20.5442 16.2817L15.5146 21.0154C13.5736 22.9949 10.4264 22.9949 8.48535 21.0154L3.45581 16.2817C1.51473 14.3023 1.51473 11.093 3.45581 9.11354L8.48535 3.98458ZM8.62923 9.38427C8.30466 9.38417 8.02781 9.4996 7.7983 9.73045C7.56908 9.96121 7.45455 10.2402 7.45455 10.5668C7.45455 10.8931 7.56908 11.172 7.7983 11.4028C8.02781 11.6337 8.30466 11.749 8.62923 11.749H15.2127C15.5374 11.749 15.8141 11.6337 16.0437 11.4028C16.273 11.172 16.3876 10.8931 16.3874 10.5668C16.3875 10.2402 16.2728 9.96121 16.0437 9.73045L13.2885 6.95685C13.059 6.7261 12.7822 6.61067 12.4577 6.61067C12.1333 6.61067 11.8565 6.7261 11.627 6.95685C11.3977 7.18775 11.2831 7.46658 11.2831 7.79316C11.2831 8.11974 11.3977 8.39848 11.627 8.62938L12.3769 9.38427H8.62923ZM10.7137 18.043C10.9435 18.2739 11.2204 18.3893 11.5451 18.3893C11.8698 18.3893 12.1468 18.2739 12.3762 18.043C12.6059 17.8122 12.7206 17.5336 12.7206 17.207C12.7206 16.8804 12.6059 16.6017 12.3762 16.3708L11.626 15.616H15.37C15.6946 15.616 15.9718 15.5007 16.2013 15.2696C16.4308 15.0388 16.5455 14.7599 16.5455 14.4333C16.5455 14.1069 16.4308 13.8282 16.2013 13.5973C15.9717 13.3664 15.6945 13.2508 15.37 13.251H8.78806C8.46338 13.2508 8.18615 13.3664 7.95679 13.5973C7.72728 13.8282 7.61251 14.1069 7.61265 14.4333C7.61251 14.7599 7.72728 15.0388 7.95679 15.2696L10.7137 18.043Z" fill="black"/>
</svg>
